!!!!SEGMENT:Yonchoumekuzushi.krn
!!!OTL: 四丁目くづし
!!!OPR:Eiga Banso Kyokusyu,jidai-geki,kouhen
!!!YOY:1928
!!!ONB:Hayabikyaku
**kern
*clefG2
*k[f#]
*G:
*M4/4
*met(c)
=1
8BL
8d
8e
8dJ
8eL
8e
8e
8f#J
=2
8aL
8a
8b
8aJ
4b
4r
=3
8BL
8d
8e
8dJ
8eL
8e
8e
8f#J
=4
8aL
8a
8b
8aJ
4b
4r
=5
8aL
16aL
16bJJ
8ddL
8ddJ
8aL
16aL
16bJJ
8ddL
8ddJ
=6
8aL
16aL
16bJJ
8ddL
8ddJ
4a
4r
=7
8BL
8a
8b
8ccJ
8eeL
8ccJ
4b
=8
8bL
8ee
8gg
8ff#J
8ggL
16ggL
16ggJJ
8ff#L
8ggJ
=9
8eeL
8ee
8ff#
8eeJ
8ccL
8ee
8cc
8bJ
=10
8BL
8a
8b
8aJ
8bL
8cc
8ee
8ccJ
=11
8bL
8a
8f#
8aJ
8eL
8e
8f#
8eJ
==
*-
!!!ENC: Yukiko Yoden
!!!END: 2023/06/11
